modules/hawcons-filled/icons/icon-73-wind-turbine.svg

<?xml version="1.0" encoding="UTF-8" standalone="no"?>
<svg width="32px" height="32px" viewBox="0 0 32 32" version="1.1" xmlns="http://www.w3.org/2000/svg" xmlns:xlink="http://www.w3.org/1999/xlink" xmlns:sketch="http://www.bohemiancoding.com/sketch/ns">
    <!-- Generator: Sketch 3.0.3 (7891) - http://www.bohemiancoding.com/sketch -->
    <title>icon 73 wind turbine</title>
    <desc>Created with Sketch.</desc>
    <defs></defs>
    <g id="Page-1" stroke="none" stroke-width="1" fill="none" fill-rule="evenodd" sketch:type="MSPage">
        <g id="icon-73-wind-turbine" sketch:type="MSArtboardGroup" fill="#929292">
            <path d="M19.259605,12.5590517 C21.8149878,14.3737243 27.96199,18.8389755 27.5652303,19.5261841 C27.1694193,20.2117497 20.2610975,17.1373155 17.3992099,15.8262632 L17.3992099,15.8262632 L18.2917827,31 C18.2917827,31 17.7917827,32 16.2917827,32 C14.7917827,32 14.2917827,31 14.2917827,31 L15.1843554,15.8262632 L15.1843554,15.8262632 C12.322468,17.1373154 5.41414674,20.2117493 5.01833505,19.5261841 C4.62157479,18.8389759 10.7685774,14.3737244 13.3239604,12.5590517 C13.3027622,12.7029628 13.2917827,12.8501992 13.2917827,13 C13.2917827,14.6568543 14.6349284,16 16.2917827,16 C17.948637,16 19.2917827,14.6568543 19.2917827,13 C19.2917827,12.8501992 19.2808032,12.7029628 19.259605,12.5590517 L19.259605,12.5590517 L19.259605,12.5590517 Z M18.1712849,10.661602 C17.8763111,7.53219053 17.0840469,-3.58885704e-07 16.2917827,0 C15.4995185,3.58885692e-07 14.7072543,7.53219067 14.4122805,10.661602 C14.9265695,10.2477118 15.580248,10 16.2917827,10 C17.0033174,10 17.6569959,10.2477118 18.1712849,10.661602 L18.1712849,10.661602 L18.1712849,10.661602 Z M16.2917827,15 C17.3963522,15 18.2917827,14.1045696 18.2917827,13 C18.2917827,11.8954304 17.3963522,11 16.2917827,11 C15.1872131,11 14.2917827,11.8954304 14.2917827,13 C14.2917827,14.1045696 15.1872131,15 16.2917827,15 L16.2917827,15 Z" id="wind-turbine" sketch:type="MSShapeGroup"></path>
        </g>
    </g>
</svg>

<svg width="32" height="32" viewBox="0 0 32 32" xmlns="http://www.w3.org/2000/svg"><path d="M19.26 12.56c2.555 1.814 8.702 6.279 8.305 6.966-.396.686-7.304-2.389-10.166-3.7L18.292 31s-.5 1-2 1-2-1-2-1l.892-15.174c-2.862 1.311-9.77 4.386-10.166 3.7-.396-.687 5.75-5.152 8.306-6.967a3 3 0 1 0 5.936 0zm-1.089-1.898C17.876 7.532 17.084 0 16.291 0c-.791 0-1.584 7.532-1.879 10.662a2.987 2.987 0 0 1 1.88-.662c.711 0 1.365.248 1.88.662zM16.291 15a2 2 0 1 0 0-4 2 2 0 0 0 0 4z" fill="#929292" fill-rule="evenodd"/></svg>
